X: 30861
T: Out On The Ocean
R: jig
M: 6/8
K: Gmajor
DBB BAG|BdB AAA|GED G2A|BBB AGE|
DBB BAG|BdB AAA|GED G2A|1 AGF G3:|2 AGF AB/c/d||
|:e2e edB|e2e edB|d3 def|gfe dBA|
G2A B2d|efe dBA|GED G2A|1 AGF AB/c/d:|2 AGF G3||

